public/images/icons/PostgreSQL.svg

<svg width="170" height="179" viewBox="0 0 170 179" fill="none" xmlns="http://www.w3.org/2000/svg">
<path d="M152.194 47.4397C143.072 43.8109 133.525 42.7506 123.555 44.2586C117.143 45.2247 111.451 45.5075 106.477 45.1069C99.3821 44.5649 92.7114 45.7784 86.465 48.7474C85.2628 49.3129 84.0371 49.3836 82.7878 48.9595C76.7536 46.9095 70.0711 45.7195 62.7403 45.3897C44.7789 44.5885 33.8064 52.3644 29.8228 68.7172C10.2703 62.2138 -10.1307 42.7741 7.51249 23.7233C13.3818 17.3612 19.9582 12.8489 27.2418 10.1862C64.2961 -3.40977 99.6885 -2.44368 133.419 13.0845C145.688 18.7043 158.452 31.8172 152.194 47.4397Z" fill="#4595D6"/>
<path d="M149 113C148.906 114.037 149.778 113.405 149.259 114.277C148.482 115.573 148.069 115.467 148.022 113.959C147.645 104.274 147.774 94.1891 148.411 83.7035C148.741 78.1425 147.539 73.1943 144.804 68.8586C139.501 60.4937 132.913 54.273 125.04 50.1966C123.366 49.3247 123.461 48.7592 125.323 48.5C137.603 46.827 147.869 48.7474 156.119 54.2612C160.126 56.9474 162.719 60.0695 163.897 63.6276C167.857 75.6802 157.957 98.9724 152.123 109.222C151.958 109.505 149.566 114.159 149.259 114.277C148.505 114.536 149.071 112.199 149 113Z" fill="#4595D6"/>
<path d="M35.268 83.35C29.823 51.6103 53.4062 44.9655 78.1915 52.2819C79.6294 52.706 79.8887 53.5072 78.9694 54.6853C66.7712 70.3078 68.3976 89.5 68.3269 107.561C68.3269 112.321 70.0948 116.456 73.6305 119.967C75.0919 121.405 75.1155 122.877 73.7012 124.385L62.7758 136.12C61.9434 137.006 60.8066 137.543 59.5975 137.622C58.3885 137.701 57.1983 137.315 56.2701 136.544C43.6476 126.047 37.849 98.3009 35.268 83.35Z" fill="#4595D6"/>
<path d="M136.884 128.485C135.588 139.065 134.232 149.504 132.818 159.801C130.449 177.155 104.32 181.397 102.517 159.271C101.786 150.505 101.68 141.799 102.199 133.151C102.482 128.085 100.101 124.963 95.0567 123.784C93.5245 123.431 93.0885 122.536 93.7485 121.098C98.946 109.929 101.81 102.542 99.5117 89.1465C97.2842 76.175 86.8892 75.1147 76.8478 79.5681C74.5613 80.5813 73.5949 79.8509 73.9485 77.3767C76.3881 59.9517 87.2781 48.2526 105.805 49.525C121.834 50.6089 133.926 58.4672 142.082 73.1C142.93 74.6316 142.494 75.4917 140.773 75.6802C111.25 79.0379 132.288 109.187 141.021 121.522C141.94 122.818 141.705 123.843 140.314 124.597L139.076 125.269C138.484 125.599 137.977 126.062 137.596 126.62C137.216 127.179 136.972 127.817 136.884 128.485Z" fill="#4595D6"/>
<path d="M30.9896 88.7577L40.5007 120.391C24.095 116.503 0.228883 104.698 0.794597 85.2233C0.983169 79.2146 0.877097 73.0293 0.476382 66.6672C0.334954 64.5465 0.806383 64.4052 1.89067 66.2431C8.04281 76.8937 17.7425 84.3986 30.9896 88.7577Z" fill="#4595D6"/>
<path d="M139.253 86.0362C140.22 84.8109 140.243 83.5974 139.324 82.3957C138.287 81.0526 138.617 80.4046 140.314 80.4517C141.775 80.4753 142.789 81.1115 143.355 82.3604C143.637 83.0201 143.732 83.7035 143.637 84.4104C142.742 91.1966 142.753 98.242 143.673 105.547C144.026 108.233 143.708 110.931 142.718 113.641C142.656 113.806 142.548 113.951 142.408 114.059C142.268 114.167 142.1 114.234 141.924 114.252C141.748 114.271 141.57 114.24 141.411 114.163C141.251 114.086 141.116 113.966 141.021 113.817C136.236 106.418 132.571 98.5129 130.025 90.1009C129.341 87.7917 129.777 85.7299 131.333 83.9155C131.458 83.7721 131.613 83.6583 131.787 83.5825C131.961 83.5068 132.15 83.471 132.34 83.4777C132.53 83.4845 132.716 83.5337 132.884 83.6217C133.053 83.7097 133.199 83.8342 133.313 83.9862C134.115 85.0937 135.14 85.9773 136.389 86.6371C137.521 87.2262 138.475 87.0259 139.253 86.0362Z" fill="#4595D6"/>
<path d="M90.3191 87.1319C90.2483 86.4486 90.1069 85.7535 89.8948 85.0466C89.3526 83.2086 89.9419 82.7256 91.6626 83.5974C92.8883 84.2336 93.6898 85.2586 94.0669 86.6724C97.0369 98.619 95.1276 110.153 88.3391 121.275C87.6791 122.359 86.7362 122.783 85.5105 122.547C68.3976 119.366 74.5498 99.644 73.7012 88.4043C73.5833 87.0612 74.0783 85.9891 75.1862 85.1879C77.2841 83.6799 79.5941 82.702 82.1162 82.2543C84.4026 81.8537 85.5458 82.8198 85.5458 85.1526C85.5223 86.9905 86.3237 88.2394 87.9501 88.8991C89.718 89.6296 90.5076 89.0405 90.3191 87.1319Z" fill="#4595D6"/>
<path d="M97.6378 143.366L99.7946 171.429C71.9331 175.812 18.5439 172.666 3.12815 143.578C-1.00864 135.802 1.14815 123.396 0.723862 114.277C0.606005 112.015 1.10101 111.873 2.20886 113.853C3.55243 116.291 4.82529 119.296 6.76993 121.346C27.9135 143.648 68.6449 147.359 97.6378 143.366Z" fill="#4595D6"/>
<path d="M153.891 137.604C151.864 146.37 146.702 153.144 138.404 157.928C137.792 151.589 138.416 145.404 140.278 139.372C140.632 138.264 141.398 137.699 142.577 137.675L153.891 137.604Z" fill="#4595D6"/>
<path d="M76.4866 138.766C75.5401 138.135 75.7334 136.692 76.8124 136.332L79.4642 135.448L83.0485 134.553C85.3561 133.976 87.5474 133.007 89.5267 131.688L91.4298 130.42C91.7015 130.238 91.9962 130.094 92.306 129.991C94.6856 129.198 97.1428 130.969 97.1428 133.478V135.448C97.1428 136.005 96.8808 136.528 96.4358 136.862L94.4732 138.334C93.8995 138.764 93.2603 139.098 92.5801 139.325L90.9551 139.867C89.1989 140.452 87.3598 140.75 85.5086 140.75H83.8839H82.6509C80.573 140.75 78.5415 140.135 76.8124 138.983L76.4866 138.766Z" fill="#4595D6"/>
<path d="M164.473 129.028C165.046 128.134 164.403 126.959 163.341 126.959L162.706 126.959L160.398 127.242C157.231 127.63 154.032 127.672 150.857 127.368L146.581 126.959L145.764 126.906C142.96 126.724 140.923 129.525 141.963 132.135C142.506 133.499 143.782 134.431 145.246 134.535L149.412 134.829C150.023 134.873 150.637 134.862 151.246 134.798L152.908 134.623C154.542 134.452 156.153 134.111 157.715 133.605L159.988 132.87C160.618 132.666 161.216 132.374 161.763 132.001C162.387 131.576 162.938 131.053 163.395 130.451L164.473 129.028Z" fill="#4595D6"/>
</svg>

<svg width="170" height="179" fill="none" xmlns="http://www.w3.org/2000/svg"><path d="M152.194 47.44c-9.122-3.63-18.669-4.69-28.639-3.181-6.412.966-12.104 1.248-17.078.848-7.095-.542-13.766.671-20.012 3.64-1.202.566-2.428.637-3.677.212-6.034-2.05-12.717-3.24-20.048-3.57-17.961-.8-28.934 6.975-32.917 23.328-19.553-6.503-39.954-25.943-22.31-44.994 5.869-6.362 12.445-10.874 19.729-13.537C64.296-3.41 99.689-2.444 133.419 13.085c12.269 5.62 25.033 18.732 18.775 34.355Z" fill="#4595D6"/><path d="M149 113c-.094 1.037.778.405.259 1.277-.777 1.296-1.19 1.19-1.237-.318-.377-9.685-.248-19.77.389-30.255.33-5.561-.872-10.51-3.607-14.845-5.303-8.365-11.891-14.586-19.764-18.662-1.674-.872-1.579-1.438.283-1.697 12.28-1.673 22.546.247 30.796 5.761 4.007 2.686 6.6 5.808 7.778 9.367 3.96 12.052-5.94 35.344-11.774 45.594-.165.283-2.557 4.937-2.864 5.055-.754.259-.188-2.078-.259-1.277ZM35.268 83.35c-5.445-31.74 18.138-38.384 42.924-31.068 1.437.424 1.697 1.225.777 2.403C66.771 70.308 68.398 89.5 68.327 107.561c0 4.76 1.768 8.895 5.303 12.406 1.462 1.438 1.486 2.91.071 4.418L62.776 136.12a4.792 4.792 0 0 1-3.179 1.502 4.723 4.723 0 0 1-3.327-1.078C43.648 126.047 37.85 98.301 35.268 83.35Z" fill="#4595D6"/><path d="M136.884 128.485a2166.088 2166.088 0 0 1-4.066 31.316c-2.369 17.354-28.498 21.596-30.301-.53a182.416 182.416 0 0 1-.318-26.12c.283-5.066-2.098-8.188-7.142-9.367-1.532-.353-1.969-1.248-1.308-2.686 5.197-11.169 8.061-18.556 5.763-31.951-2.228-12.972-12.623-14.032-22.664-9.579-2.287 1.013-3.253.283-2.9-2.191 2.44-17.425 13.33-29.124 31.857-27.852 16.029 1.084 28.121 8.942 36.277 23.575.848 1.532.412 2.392-1.309 2.58-29.523 3.358-8.485 33.507.248 45.842.919 1.296.684 2.321-.707 3.075l-1.238.672a4.32 4.32 0 0 0-2.192 3.216ZM30.99 88.758l9.51 31.633C24.096 116.503.23 104.698.796 85.223a196.95 196.95 0 0 0-.319-18.556c-.141-2.12.33-2.262 1.415-.424C8.043 76.893 17.742 84.4 30.99 88.758Z" fill="#4595D6"/><path d="M139.253 86.036c.967-1.225.99-2.439.071-3.64-1.037-1.343-.707-1.991.99-1.944 1.461.023 2.475.66 3.041 1.908.282.66.377 1.344.282 2.05-.895 6.787-.884 13.832.036 21.137.353 2.686.035 5.384-.955 8.094a.953.953 0 0 1-1.307.522.952.952 0 0 1-.39-.346 93.156 93.156 0 0 1-10.996-23.716c-.684-2.31-.248-4.371 1.308-6.186a1.281 1.281 0 0 1 1.007-.437 1.27 1.27 0 0 1 .973.508 8.829 8.829 0 0 0 3.076 2.651c1.132.59 2.086.389 2.864-.6ZM90.32 87.132a11.307 11.307 0 0 0-.425-2.085c-.542-1.838.047-2.321 1.768-1.45 1.225.637 2.027 1.662 2.404 3.075 2.97 11.947 1.06 23.481-5.728 34.603-.66 1.084-1.603 1.508-2.829 1.272-17.112-3.181-10.96-22.903-11.809-34.143-.118-1.343.377-2.415 1.485-3.216a16.747 16.747 0 0 1 6.93-2.934c2.287-.4 3.43.566 3.43 2.899-.024 1.837.778 3.086 2.404 3.746 1.768.73 2.558.141 2.37-1.767ZM97.638 143.366l2.157 28.063c-27.862 4.383-81.251 1.237-96.667-27.851-4.137-7.776-1.98-20.182-2.404-29.301-.118-2.262.377-2.404 1.485-.424 1.343 2.438 2.616 5.443 4.56 7.493 21.145 22.302 61.876 26.013 90.869 22.02ZM153.891 137.604c-2.027 8.766-7.189 15.54-15.487 20.324-.612-6.339.012-12.524 1.874-18.556.354-1.108 1.12-1.673 2.299-1.697l11.314-.071Z" fill="#4595D6"/><path d="M76.487 138.766c-.947-.631-.754-2.074.325-2.434l2.652-.884 3.585-.895a20.765 20.765 0 0 0 6.478-2.865l1.903-1.268c.271-.182.566-.326.876-.429 2.38-.793 4.837.978 4.837 3.487v1.97c0 .557-.262 1.08-.707 1.414l-1.963 1.472a6.682 6.682 0 0 1-1.893.991l-1.625.542a17.234 17.234 0 0 1-5.446.883H82.65a10.53 10.53 0 0 1-5.839-1.767l-.325-.217ZM164.473 129.028a1.344 1.344 0 0 0-1.132-2.069h-.635l-2.308.283c-3.167.388-6.366.43-9.541.126l-4.276-.409-.817-.053c-2.804-.182-4.841 2.619-3.801 5.229a3.825 3.825 0 0 0 3.283 2.4l4.166.294c.611.044 1.225.033 1.834-.031l1.662-.175a23.551 23.551 0 0 0 4.807-1.018l2.273-.735a6.95 6.95 0 0 0 3.407-2.419l1.078-1.423Z" fill="#4595D6"/></svg>
